X: 21807
T: Kings Of Inishbofin, The
R: jig
M: 6/8
K: Dmajor
|:Add dAF|GEE E2B|Ace ged|cdB ABG|
A3 dAF|GEE E2B|Ace gec|BcA d3:|
|:fgf fdA|Bgg geB|Agg gec|Ace bag|
fgf fdA|Bgg geB|Ace bag|fge d3:|

